icons/op-boards-16.svg

<svg width="16" height="16" viewBox="0 0 16 16" fill="none" xmlns="http://www.w3.org/2000/svg">
<path fill-rule="evenodd" clip-rule="evenodd" d="M1 1.72414C1 1.32421 1.32421 1 1.72414 1H4.62069C5.02062 1 5.34483 1.32421 5.34483 1.72414C5.34483 2.12407 5.02062 2.44828 4.62069 2.44828H1.72414C1.32421 2.44828 1 2.12407 1 1.72414Z" fill="#1F2328"/>
<path fill-rule="evenodd" clip-rule="evenodd" d="M5.82759 1.72414C5.82759 1.32421 6.15179 1 6.55172 1H9.44828C9.84821 1 10.1724 1.32421 10.1724 1.72414C10.1724 2.12407 9.84821 2.44828 9.44828 2.44828H6.55172C6.15179 2.44828 5.82759 2.12407 5.82759 1.72414Z" fill="#1F2328"/>
<path fill-rule="evenodd" clip-rule="evenodd" d="M10.6552 1.72414C10.6552 1.32421 10.9794 1 11.3793 1H14.2759C14.6758 1 15 1.32421 15 1.72414C15 2.12407 14.6758 2.44828 14.2759 2.44828H11.3793C10.9794 2.44828 10.6552 2.12407 10.6552 1.72414Z" fill="#1F2328"/>
<path fill-rule="evenodd" clip-rule="evenodd" d="M1 4.62069C1 3.68752 1.75648 2.93103 2.68966 2.93103H3.65517C4.58834 2.93103 5.34483 3.68752 5.34483 4.62069V13.3103C5.34483 14.2435 4.58834 15 3.65517 15H2.68966C1.75648 15 1 14.2435 1 13.3103V4.62069ZM2.68966 4.37931C2.55634 4.37931 2.44828 4.48738 2.44828 4.62069V13.3103C2.44828 13.4437 2.55635 13.5517 2.68966 13.5517H3.65517C3.78848 13.5517 3.89655 13.4437 3.89655 13.3103V4.62069C3.89655 4.48738 3.78848 4.37931 3.65517 4.37931H2.68966Z" fill="#1F2328"/>
<path fill-rule="evenodd" clip-rule="evenodd" d="M5.82758 4.62069C5.82758 3.68752 6.58406 2.93103 7.51723 2.93103H8.48275C9.41592 2.93103 10.1724 3.68752 10.1724 4.62069V7.51724C10.1724 8.45041 9.41592 9.2069 8.48275 9.2069H7.51723C6.58406 9.2069 5.82758 8.45041 5.82758 7.51724V4.62069ZM7.51723 4.37931C7.38392 4.37931 7.27585 4.48738 7.27585 4.62069V7.51724C7.27585 7.65055 7.38392 7.75862 7.51723 7.75862H8.48275C8.61606 7.75862 8.72413 7.65055 8.72413 7.51724V4.62069C8.72413 4.48738 8.61606 4.37931 8.48275 4.37931H7.51723Z" fill="#1F2328"/>
<path fill-rule="evenodd" clip-rule="evenodd" d="M10.6552 4.62069C10.6552 3.68752 11.4117 2.93103 12.3448 2.93103H13.3104C14.2435 2.93103 15 3.68752 15 4.62069V10.4483C15 11.3814 14.2435 12.1379 13.3104 12.1379H12.3448C11.4117 12.1379 10.6552 11.3814 10.6552 10.4483V4.62069ZM12.3448 4.37931C12.2115 4.37931 12.1035 4.48738 12.1035 4.62069V10.4483C12.1035 10.5816 12.2115 10.6897 12.3448 10.6897H13.3104C13.4437 10.6897 13.5517 10.5816 13.5517 10.4483V4.62069C13.5517 4.48738 13.4437 4.37931 13.3104 4.37931H12.3448Z" fill="#1F2328"/>
</svg>

<svg xmlns="http://www.w3.org/2000/svg" width="16" height="16" viewBox="0 0 16 16"><path d="M1 1.724c0-.4.324-.724.724-.724h2.897a.724.724 0 1 1 0 1.448H1.724A.724.724 0 0 1 1 1.724Zm4.828 0c0-.4.324-.724.724-.724h2.896a.724.724 0 1 1 0 1.448H6.552a.724.724 0 0 1-.724-.724Zm4.827 0c0-.4.324-.724.724-.724h2.897a.724.724 0 1 1 0 1.448h-2.897a.724.724 0 0 1-.724-.724ZM1 4.621c0-.933.756-1.69 1.69-1.69h.965c.933 0 1.69.757 1.69 1.69v8.689A1.69 1.69 0 0 1 3.655 15H2.69A1.69 1.69 0 0 1 1 13.31Zm1.69-.242a.242.242 0 0 0-.242.242v8.689c0 .134.108.242.242.242h.965a.242.242 0 0 0 .242-.242V4.621a.242.242 0 0 0-.242-.242Zm3.138.242c0-.933.756-1.69 1.689-1.69h.966a1.69 1.69 0 0 1 1.689 1.69v2.896a1.69 1.69 0 0 1-1.689 1.69h-.966a1.69 1.69 0 0 1-1.689-1.69Zm1.689-.242a.241.241 0 0 0-.241.242v2.896c0 .134.108.242.241.242h.966a.241.241 0 0 0 .241-.242V4.621a.241.241 0 0 0-.241-.242Zm3.138.242c0-.933.757-1.69 1.69-1.69h.965c.933 0 1.69.757 1.69 1.69v5.827a1.69 1.69 0 0 1-1.69 1.69h-.965a1.69 1.69 0 0 1-1.69-1.69Zm1.69-.242a.241.241 0 0 0-.241.242v5.827c0 .134.108.242.241.242h.965a.242.242 0 0 0 .242-.242V4.621a.242.242 0 0 0-.242-.242Z"/></svg>
